X: 13820
T: Four Poster Bed, The
R: reel
M: 4/4
K: Dmajor
cd|:f2f2 e2fg|agfe d2de|f2f2 e2d2|e2a2 A2 cd:|
|:e4 e3 f|edcB A2e2|z2e2 z2e2|z2e2 z2 e2|
e4 e3 f|edcB A2e2|a2g2 f2e2|d4 d2cd:|

